docs/img/product-detail/delivery-ic-02.svg

<svg width="46" height="32" viewBox="0 0 46 32" fill="none" xmlns="http://www.w3.org/2000/svg">
<path d="M2.01119 0.833008C1.17658 0.833008 0.5 1.50826 0.5 2.34117V26.1278C0.5 26.9607 1.17659 27.6359 2.0112 27.6359H5.56104L5.78918 26.2953H2.0112C1.91846 26.2953 1.84328 26.2203 1.84328 26.1278V2.34117C1.84328 2.24859 1.91846 2.17359 2.01119 2.17359H28.8038C28.8966 2.17359 28.9717 2.24859 28.9717 2.34117V26.2953H13.8124L14.1482 27.6359H29.6434C30.0143 27.6359 30.3151 27.3358 30.3151 26.9656V2.34117C30.3151 1.50826 29.6385 0.833008 28.8038 0.833008H2.01119Z" fill="#397345"/>
<path fill-rule="evenodd" clip-rule="evenodd" d="M29.6437 20.5632H1.17188V19.2227H29.6437V20.5632Z" fill="#397345"/>
<path d="M29.6426 26.2949V27.6355H31.778V26.2949H29.6426Z" fill="#397345"/>
<path d="M29.6426 7.83179H39.0817C39.4516 7.83179 39.7917 8.03404 39.9677 8.35871L43.7309 15.2981C44.0098 15.8125 44.1559 16.3881 44.1559 16.973V25.2898C44.1559 25.845 43.7048 26.2952 43.1484 26.2952H39.7902V27.6358H43.1484C44.4467 27.6358 45.4992 26.5855 45.4992 25.2898V16.973C45.4992 16.1654 45.2974 15.3704 44.9122 14.66L41.1492 7.72063C40.7383 6.96313 39.9447 6.49121 39.0817 6.49121H29.6426V7.83179Z" fill="#397345"/>
<path fill-rule="evenodd" clip-rule="evenodd" d="M31.8184 9.99065C31.8184 9.6204 32.1191 9.32031 32.49 9.32031H38.6589C38.9129 9.32031 39.1451 9.46331 39.2591 9.68981L42.5809 16.2911C42.6854 16.499 42.6746 16.746 42.5523 16.9438C42.4299 17.1417 42.2136 17.2622 41.9806 17.2622H32.49C32.1191 17.2622 31.8184 16.9621 31.8184 16.592V9.99065ZM33.1617 10.6609V15.9216H40.8918L38.2446 10.6609H33.1617Z" fill="#397345"/>
<path d="M32.4902 19.4215C32.4902 18.9007 32.9133 18.4785 33.4352 18.4785H35.3416C35.8634 18.4785 36.2865 18.9007 36.2865 19.4215C36.2865 19.9424 35.8634 20.3646 35.3416 20.3646H33.4352C32.9133 20.3646 32.4902 19.9424 32.4902 19.4215Z" fill="#397345"/>
<path fill-rule="evenodd" clip-rule="evenodd" d="M9.98665 30.3261C11.795 30.3261 13.2609 28.8631 13.2609 27.0584C13.2609 25.2538 11.795 23.7908 9.98665 23.7908C8.1784 23.7908 6.7124 25.2538 6.7124 27.0584C6.7124 28.8631 8.1784 30.3261 9.98665 30.3261ZM9.98665 31.6667C12.5369 31.6667 14.6042 29.6035 14.6042 27.0584C14.6042 24.5134 12.5369 22.4502 9.98665 22.4502C7.43648 22.4502 5.36914 24.5134 5.36914 27.0584C5.36914 29.6035 7.43648 31.6667 9.98665 31.6667Z" fill="#397345"/>
<path fill-rule="evenodd" clip-rule="evenodd" d="M9.98751 27.8126C10.4048 27.8126 10.7432 27.475 10.7432 27.0585C10.7432 26.6421 10.4048 26.3045 9.98751 26.3045C9.57026 26.3045 9.23192 26.6421 9.23192 27.0585C9.23192 27.475 9.57026 27.8126 9.98751 27.8126ZM9.98751 29.1532C11.1468 29.1532 12.0864 28.2154 12.0864 27.0585C12.0864 25.9017 11.1468 24.9639 9.98751 24.9639C8.82834 24.9639 7.88867 25.9017 7.88867 27.0585C7.88867 28.2154 8.82834 29.1532 9.98751 29.1532Z" fill="#397345"/>
<path fill-rule="evenodd" clip-rule="evenodd" d="M36.014 30.3261C37.8223 30.3261 39.2882 28.8631 39.2882 27.0584C39.2882 25.2538 37.8223 23.7908 36.014 23.7908C34.2057 23.7908 32.7397 25.2538 32.7397 27.0584C32.7397 28.8631 34.2057 30.3261 36.014 30.3261ZM36.014 31.6667C38.5642 31.6667 40.6316 29.6035 40.6316 27.0584C40.6316 24.5134 38.5642 22.4502 36.014 22.4502C33.4638 22.4502 31.3965 24.5134 31.3965 27.0584C31.3965 29.6035 33.4638 31.6667 36.014 31.6667Z" fill="#397345"/>
<path fill-rule="evenodd" clip-rule="evenodd" d="M36.013 27.8126C36.4303 27.8126 36.7686 27.475 36.7686 27.0585C36.7686 26.6421 36.4303 26.3045 36.013 26.3045C35.5956 26.3045 35.2574 26.6421 35.2574 27.0585C35.2574 27.475 35.5956 27.8126 36.013 27.8126ZM36.013 29.1532C37.1721 29.1532 38.1119 28.2154 38.1119 27.0585C38.1119 25.9017 37.1721 24.9639 36.013 24.9639C34.8538 24.9639 33.9141 25.9017 33.9141 27.0585C33.9141 28.2154 34.8538 29.1532 36.013 29.1532Z" fill="#397345"/>
<path fill-rule="evenodd" clip-rule="evenodd" d="M10.9395 7.16216V1.50391H12.2827V6.49182H17.5829V1.50391H18.9261V7.16216C18.9261 7.53232 18.6255 7.83241 18.2545 7.83241H11.6111C11.2401 7.83241 10.9395 7.53232 10.9395 7.16216Z" fill="#397345"/>
</svg>

<svg width="46" height="32" fill="none" xmlns="http://www.w3.org/2000/svg"><path d="M2.011.833A1.51 1.51 0 00.5 2.341v23.787a1.51 1.51 0 001.511 1.508h3.55l.228-1.34H2.011a.168.168 0 01-.168-.168V2.34c0-.092.075-.167.168-.167h26.793c.093 0 .168.075.168.167v23.954h-15.16l.336 1.34h15.495c.371 0 .672-.3.672-.67V2.342A1.51 1.51 0 0028.804.833H2.01z" fill="#397345"/><path fill-rule="evenodd" clip-rule="evenodd" d="M29.644 20.563H1.172v-1.34h28.472v1.34z" fill="#397345"/><path d="M29.643 26.295v1.34h2.135v-1.34h-2.135zm0-18.463h9.439c.37 0 .71.202.886.527l3.763 6.94a3.51 3.51 0 01.425 1.674v8.317c0 .555-.451 1.005-1.008 1.005H39.79v1.34h3.358a2.348 2.348 0 002.351-2.345v-8.317c0-.808-.202-1.603-.587-2.313L41.15 7.72a2.352 2.352 0 00-2.067-1.229h-9.44v1.34z" fill="#397345"/><path fill-rule="evenodd" clip-rule="evenodd" d="M31.818 9.99c0-.37.301-.67.672-.67h6.169c.254 0 .486.143.6.37l3.322 6.601a.67.67 0 01-.6.971H32.49a.67.67 0 01-.672-.67V9.991zm1.344.67v5.262h7.73l-2.647-5.261h-5.083z" fill="#397345"/><path d="M32.49 19.422c0-.521.423-.944.945-.944h1.907a.944.944 0 110 1.887h-1.907a.944.944 0 01-.945-.943z" fill="#397345"/><path fill-rule="evenodd" clip-rule="evenodd" d="M9.987 30.326a3.271 3.271 0 003.274-3.268 3.27 3.27 0 00-3.274-3.267 3.271 3.271 0 00-3.275 3.267 3.271 3.271 0 003.275 3.268zm0 1.34a4.613 4.613 0 004.617-4.608 4.613 4.613 0 00-4.617-4.608 4.613 4.613 0 00-4.618 4.608 4.613 4.613 0 004.618 4.609z" fill="#397345"/><path fill-rule="evenodd" clip-rule="evenodd" d="M9.988 27.813a.755.755 0 10.001-1.51.755.755 0 00-.001 1.51zm0 1.34a2.096 2.096 0 002.098-2.095c0-1.156-.94-2.094-2.098-2.094-1.16 0-2.1.938-2.1 2.095 0 1.156.94 2.094 2.1 2.094zm26.026 1.173a3.27 3.27 0 003.274-3.268 3.27 3.27 0 00-3.274-3.267 3.271 3.271 0 00-3.274 3.267 3.271 3.271 0 003.274 3.268zm0 1.34a4.613 4.613 0 004.618-4.608 4.613 4.613 0 00-4.618-4.608 4.613 4.613 0 00-4.618 4.608 4.613 4.613 0 004.618 4.609z" fill="#397345"/><path fill-rule="evenodd" clip-rule="evenodd" d="M36.013 27.813a.755.755 0 10.002-1.51.755.755 0 00-.002 1.51zm0 1.34c1.16 0 2.099-.938 2.099-2.095 0-1.156-.94-2.094-2.099-2.094-1.16 0-2.099.938-2.099 2.095 0 1.156.94 2.094 2.099 2.094zM10.94 7.162V1.504h1.343v4.988h5.3V1.504h1.343v5.658c0 .37-.3.67-.671.67H11.61a.67.67 0 01-.671-.67z" fill="#397345"/></svg>
